X:3192
T:Collage Hornpipe. GS.032
T:Sailors Hornpipe,aka. GS.032
T:College Hornpipe,aka. GS.032
M:2/2
L:1/8
Q:180
S:George Spencer m/s, Leeds,1831
R:Hornpipe
O:England
A:Leeds
N:Mr. Spencer was obviously having serious  problems with his pen, as
N:many of the noteheads  are large blots.  1 - This bar has five beats,
N:there are two  low crochets D's  2 - this note is given as low D in the
N:MS - and the bar is then
N: repeated identically, (giving 9 bars in the A music). -  so one bar
N:has been omitted.  There are several other changes that could be made -
N: eg. first two notes would usually be DC rather than GF - but where do
N:you stop?'GS' written on the stave st the end.
H:1831
Z:vmp.Cherri Graebe
K:D Major
(gf) | d2 D2 "1 see NB" DEFG | A2 d2d2 )cd) | e2 "2" E2 EFGA | B2 e2e2 (
dc) | d
efg a2 gf |!
gfed c2 (BA) | (Bd)(ce) (df)(eg) | f2 d2d2 :||: (AG) | FA dA FA dA | B2G
2G2 (BG) |!  GBdG GBdG | 
B2G2G2 (Bc) | defg a2 (gf) | fefd c2 (BA) | Bdce dfeg | BdFA G2G2G2 :||


